icon/pk/teeth.svg

<svg viewBox="0 0 48 48" fill="none" xmlns="http://www.w3.org/2000/svg" height="1em" width="1em">
  <path fill-rule="evenodd" clip-rule="evenodd" d="M13.1172 5H14.0026C18.6687 5.68989 19.9341 8.33825 24.0003 8.33825C28.0664 8.33825 29.3314 5.69005 33.9978 5H34.5003C39.747 5 44.0003 9.25329 44.0003 14.5V15.1259C44.0003 18.0287 40.9091 21.3433 40.0003 24.4829C39.035 27.8174 38.3737 30.5425 38.1796 33.3943C37.7248 40.0751 35.447 43 33.0003 43C29.3465 43 26.1017 28.0251 24.0627 28.0251C22.0237 28.0251 17.9776 43 15.0003 43C13.1832 43 10.8293 41.9254 9.94554 33.3943C9.59391 30 9.00122 27.9407 8.00028 24.4829C7.1205 21.4437 4.15199 17.8111 4.00028 14.5511C3.76597 9.51593 7.65782 5.24419 12.693 5.00988C12.8343 5.00331 12.9757 5.00002 13.1172 5Z" fill="#2F88FF" stroke="black" stroke-width="4"/>
  <path d="M15.4824 12.4634L32.0005 17.7887" stroke="white" stroke-width="4" stroke-linecap="round"/>
  <path d="M15.4824 17.7886L32.0005 12.4632" stroke="white" stroke-width="4" stroke-linecap="round"/>
</svg>

<svg width="48" height="48" fill="none" xmlns="http://www.w3.org/2000/svg"><path fill-rule="evenodd" clip-rule="evenodd" d="M13.117 5h.886c4.666.69 5.931 3.338 9.997 3.338S29.331 5.69 33.998 5h.502a9.5 9.5 0 0 1 9.5 9.5v.626c0 2.903-3.09 6.217-4 9.357-.965 3.334-1.626 6.06-1.82 8.911C37.725 40.075 35.447 43 33 43c-3.654 0-6.898-14.975-8.937-14.975C22.023 28.025 17.978 43 15 43c-1.817 0-4.17-1.075-5.054-9.606C9.594 30 9 27.941 8 24.483c-.88-3.04-3.848-6.672-4-9.932A9.127 9.127 0 0 1 13.117 5Z" fill="#2F88FF" stroke="#000" stroke-width="4"/><path d="m15.482 12.463 16.519 5.326M15.482 17.789l16.519-5.326" stroke="#fff" stroke-width="4" stroke-linecap="round"/></svg>
